app/assets/img/work/ttl-mahna-pc.svg

<svg fill="none" height="25" viewBox="0 0 266 25" width="266" xmlns="http://www.w3.org/2000/svg"><path d="m.92 24v-16.592h3.072c.30933 0 .56533.06933.768.208.21333.13867.36267.34667.448.624l.272.896c.27733-.288.56533-.54933.864-.784.29867-.24533.61867-.45333.96-.624.352-.18133.72533-.32 1.12-.416.40533-.10667.848-.16 1.328-.16 1.0027 0 1.8293.26133 2.48.784.6613.512 1.1627 1.2 1.504 2.064.2773-.512.6133-.94933 1.008-1.312.4053-.36267.8373-.656 1.296-.88.4693-.224.96-.38933 1.472-.496.5227-.10667 1.04-.16 1.552-.16.9493 0 1.792.144 2.528.432.736.27733 1.3493.688 1.84 1.232.5013.53333.88 1.1947 1.136 1.984.256.7787.384 1.664.384 2.656v10.544h-4.96v-10.544c0-1.7173-.736-2.576-2.208-2.576-.672 0-1.232.224-1.68.672-.4373.4373-.656 1.072-.656 1.904v10.544h-4.96v-10.544c0-.9493-.1867-1.616-.56-2-.37333-.384-.92267-.576-1.648-.576-.448 0-.87467.1013-1.28.304-.39467.2027-.768.4747-1.12.816v12zm39.3385 0c-.4693 0-.8267-.064-1.072-.192-.2347-.128-.432-.3947-.592-.8l-.352-.912c-.416.352-.816.6613-1.2.928s-.784.496-1.2.688c-.4053.1813-.8427.3147-1.312.4-.4587.096-.9707.144-1.536.144-.7573 0-1.4453-.096-2.064-.288-.6187-.2027-1.1467-.496-1.584-.88-.4267-.384-.7573-.8587-.992-1.424-.2347-.576-.352-1.2373-.352-1.984 0-.5867.1493-1.1893.448-1.808s.816-1.1787 1.552-1.68c.736-.512 1.728-.9387 2.976-1.28s2.8213-.5333 4.72-.576v-.704c0-.9707-.2027-1.6693-.608-2.096-.3947-.4373-.96-.656-1.696-.656-.5867 0-1.0667.064-1.44.192s-.7093.272-1.008.432c-.288.16-.5707.304-.848.432s-.608.192-.992.192c-.3413 0-.6347-.08-.88-.24-.2347-.1707-.4213-.3787-.56-.624l-.896-1.552c1.0027-.88533 2.112-1.54133 3.328-1.968 1.2267-.43733 2.5387-.656 3.936-.656 1.0027 0 1.904.16533 2.704.496.8107.32 1.4933.77333 2.048 1.36.5653.576.9973 1.264 1.296 2.064s.448 1.6747.448 2.624v10.368zm-5.696-3.024c.64 0 1.2-.112 1.68-.336s.9653-.5867 1.456-1.088v-2.304c-.992.0427-1.808.128-2.448.256s-1.1467.288-1.52.48-.6347.4107-.784.656c-.1387.2453-.208.512-.208.8 0 .5653.1547.9653.464 1.2.3093.224.7627.336 1.36.336zm11.81 3.024v-23.9520016h4.96v8.8160016c.5973-.512 1.2427-.92267 1.936-1.232.704-.32 1.5413-.48 2.512-.48.9067 0 1.7067.16 2.4.48.704.30933 1.296.74667 1.776 1.312.48.55467.8427 1.2213 1.088 2 .2453.768.368 1.6053.368 2.512v10.544h-4.96v-10.544c0-.8107-.1867-1.44-.56-1.888-.3733-.4587-.9227-.688-1.648-.688-.544 0-1.056.1173-1.536.352s-.9387.5493-1.376.944v11.824zm18.8825 0v-16.592h3.072c.3093 0 .5653.06933.768.208.2133.13867.3627.34667.448.624l.288.96c.32-.29867.6507-.576.992-.832s.704-.46933 1.088-.64c.3947-.18133.816-.32 1.264-.416.4587-.10667.9547-.16 1.488-.16.9067 0 1.7067.16 2.4.48.704.30933 1.296.74667 1.776 1.312.48.55467.8427 1.2213 1.088 2 .2453.768.368 1.6053.368 2.512v10.544h-4.96v-10.544c0-.8107-.1867-1.44-.56-1.888-.3733-.4587-.9227-.688-1.648-.688-.544 0-1.056.1173-1.536.352s-.9387.5493-1.376.944v11.824zm30.3385 0c-.4693 0-.8267-.064-1.072-.192-.2347-.128-.432-.3947-.592-.8l-.352-.912c-.416.352-.816.6613-1.2.928s-.784.496-1.2.688c-.4053.1813-.8427.3147-1.312.4-.4587.096-.9707.144-1.536.144-.7573 0-1.4453-.096-2.064-.288-.6187-.2027-1.1467-.496-1.584-.88-.4267-.384-.7573-.8587-.992-1.424-.2347-.576-.352-1.2373-.352-1.984 0-.5867.1493-1.1893.448-1.808s.816-1.1787 1.552-1.68c.736-.512 1.728-.9387 2.976-1.28s2.8213-.5333 4.72-.576v-.704c0-.9707-.2027-1.6693-.608-2.096-.3947-.4373-.96-.656-1.696-.656-.5867 0-1.0667.064-1.44.192s-.7093.272-1.008.432c-.288.16-.5707.304-.848.432s-.608.192-.992.192c-.3413 0-.6347-.08-.88-.24-.2347-.1707-.4213-.3787-.56-.624l-.896-1.552c1.0027-.88533 2.112-1.54133 3.328-1.968 1.2267-.43733 2.5387-.656 3.936-.656 1.0027 0 1.904.16533 2.704.496.8107.32 1.4933.77333 2.048 1.36.5653.576.9973 1.264 1.296 2.064s.448 1.6747.448 2.624v10.368zm-5.696-3.024c.64 0 1.2-.112 1.68-.336s.9653-.5867 1.456-1.088v-2.304c-.992.0427-1.808.128-2.448.256s-1.1467.288-1.52.48-.6347.4107-.784.656c-.1387.2453-.208.512-.208.8 0 .5653.1547.9653.464 1.2.3093.224.7627.336 1.36.336zm18.3175 3.024v-16.592h3.072c.309 0 .565.06933.768.208.213.13867.363.34667.448.624l.272.896c.277-.288.565-.54933.864-.784.299-.24533.619-.45333.96-.624.352-.18133.725-.32 1.12-.416.405-.10667.848-.16 1.328-.16 1.003 0 1.829.26133 2.48.784.661.512 1.163 1.2 1.504 2.064.277-.512.613-.94933 1.008-1.312.405-.36267.837-.656 1.296-.88.469-.224.96-.38933 1.472-.496.523-.10667 1.04-.16 1.552-.16.949 0 1.792.144 2.528.432.736.27733 1.349.688 1.84 1.232.501.53333.88 1.1947 1.136 1.984.256.7787.384 1.664.384 2.656v10.544h-4.96v-10.544c0-1.7173-.736-2.576-2.208-2.576-.672 0-1.232.224-1.68.672-.437.4373-.656 1.072-.656 1.904v10.544h-4.96v-10.544c0-.9493-.187-1.616-.56-2s-.923-.576-1.648-.576c-.448 0-.875.1013-1.28.304-.395.2027-.768.4747-1.12.816v12zm39.339 0c-.47 0-.827-.064-1.072-.192-.235-.128-.432-.3947-.592-.8l-.352-.912c-.416.352-.816.6613-1.2.928s-.784.496-1.2.688c-.406.1813-.843.3147-1.312.4-.459.096-.971.144-1.536.144-.758 0-1.446-.096-2.064-.288-.619-.2027-1.147-.496-1.584-.88-.427-.384-.758-.8587-.992-1.424-.235-.576-.352-1.2373-.352-1.984 0-.5867.149-1.1893.448-1.808.298-.6187.816-1.1787 1.552-1.68.736-.512 1.728-.9387 2.976-1.28s2.821-.5333 4.72-.576v-.704c0-.9707-.203-1.6693-.608-2.096-.395-.4373-.96-.656-1.696-.656-.587 0-1.067.064-1.44.192-.374.128-.71.272-1.008.432-.288.16-.571.304-.848.432-.278.128-.608.192-.992.192-.342 0-.635-.08-.88-.24-.235-.1707-.422-.3787-.56-.624l-.896-1.552c1.002-.88533 2.112-1.54133 3.328-1.968 1.226-.43733 2.538-.656 3.936-.656 1.002 0 1.904.16533 2.704.496.81.32 1.493.77333 2.048 1.36.565.576.997 1.264 1.296 2.064.298.8.448 1.6747.448 2.624v10.368zm-5.696-3.024c.64 0 1.2-.112 1.68-.336s.965-.5867 1.456-1.088v-2.304c-.992.0427-1.808.128-2.448.256s-1.147.288-1.52.48c-.374.192-.635.4107-.784.656-.139.2453-.208.512-.208.8 0 .5653.154.9653.464 1.2.309.224.762.336 1.36.336zm11.809 3.024v-23.9520016h4.96v8.8160016c.598-.512 1.243-.92267 1.936-1.232.704-.32 1.542-.48 2.512-.48.907 0 1.707.16 2.4.48.704.30933 1.296.74667 1.776 1.312.48.55467.843 1.2213 1.088 2 .246.768.368 1.6053.368 2.512v10.544h-4.96v-10.544c0-.8107-.186-1.44-.56-1.888-.373-.4587-.922-.688-1.648-.688-.544 0-1.056.1173-1.536.352s-.938.5493-1.376.944v11.824zm18.883 0v-16.592h3.072c.309 0 .565.06933.768.208.213.13867.363.34667.448.624l.288.96c.32-.29867.651-.576.992-.832s.704-.46933 1.088-.64c.395-.18133.816-.32 1.264-.416.459-.10667.955-.16 1.488-.16.907 0 1.707.16 2.4.48.704.30933 1.296.74667 1.776 1.312.48.55467.843 1.2213 1.088 2 .245.768.368 1.6053.368 2.512v10.544h-4.96v-10.544c0-.8107-.187-1.44-.56-1.888-.373-.4587-.923-.688-1.648-.688-.544 0-1.056.1173-1.536.352s-.939.5493-1.376.944v11.824zm30.338 0c-.469 0-.826-.064-1.072-.192-.234-.128-.432-.3947-.592-.8l-.352-.912c-.416.352-.816.6613-1.2.928s-.784.496-1.2.688c-.405.1813-.842.3147-1.312.4-.458.096-.97.144-1.536.144-.757 0-1.445-.096-2.064-.288-.618-.2027-1.146-.496-1.584-.88-.426-.384-.757-.8587-.992-1.424-.234-.576-.352-1.2373-.352-1.984 0-.5867.15-1.1893.448-1.808.299-.6187.816-1.1787 1.552-1.68.736-.512 1.728-.9387 2.976-1.28s2.822-.5333 4.72-.576v-.704c0-.9707-.202-1.6693-.608-2.096-.394-.4373-.96-.656-1.696-.656-.586 0-1.066.064-1.44.192-.373.128-.709.272-1.008.432-.288.16-.57.304-.848.432-.277.128-.608.192-.992.192-.341 0-.634-.08-.88-.24-.234-.1707-.421-.3787-.56-.624l-.896-1.552c1.003-.88533 2.112-1.54133 3.328-1.968 1.227-.43733 2.539-.656 3.936-.656 1.003 0 1.904.16533 2.704.496.811.32 1.494.77333 2.048 1.36.566.576.998 1.264 1.296 2.064.299.8.448 1.6747.448 2.624v10.368zm-5.696-3.024c.64 0 1.2-.112 1.68-.336s.966-.5867 1.456-1.088v-2.304c-.992.0427-1.808.128-2.448.256s-1.146.288-1.52.48c-.373.192-.634.4107-.784.656-.138.2453-.208.512-.208.8 0 .5653.155.9653.464 1.2.31.224.763.336 1.36.336zm24.238 3.024h-5.44v-23.312h5.44zm4.65 0v-16.592h3.072c.309 0 .565.06933.768.208.213.13867.363.34667.448.624l.288.96c.32-.29867.651-.576.992-.832s.704-.46933 1.088-.64c.395-.18133.816-.32 1.264-.416.459-.10667.955-.16 1.488-.16.907 0 1.707.16 2.4.48.704.30933 1.296.74667 1.776 1.312.48.55467.843 1.2213 1.088 2 .245.768.368 1.6053.368 2.512v10.544h-4.96v-10.544c0-.8107-.187-1.44-.56-1.888-.373-.4587-.923-.688-1.648-.688-.544 0-1.056.1173-1.536.352s-.939.5493-1.376.944v11.824zm30.85-12.656c-.149.1813-.293.3253-.432.432-.138.1067-.336.16-.592.16-.245 0-.469-.0587-.672-.176-.192-.1173-.41-.2453-.656-.384-.245-.1493-.533-.2827-.864-.4-.33-.1173-.741-.176-1.232-.176-.608 0-1.136.112-1.584.336-.437.224-.8.544-1.088.96s-.501.928-.64 1.536c-.138.5973-.208 1.2747-.208 2.032 0 1.5893.304 2.8107.912 3.664.619.8533 1.467 1.28 2.544 1.28.576 0 1.03-.0693 1.36-.208.342-.1493.63-.3093.864-.48.235-.1813.448-.3467.64-.496.203-.1493.454-.224.752-.224.395 0 .694.144.896.432l1.44 1.776c-.512.5867-1.05 1.0667-1.616 1.44-.565.3627-1.146.6507-1.744.864-.586.2027-1.178.3413-1.776.416-.597.0853-1.178.128-1.744.128-1.013 0-1.984-.192-2.912-.576-.917-.384-1.728-.9387-2.432-1.664-.693-.736-1.248-1.6373-1.664-2.704-.405-1.0667-.608-2.2827-.608-3.648 0-1.1947.176-2.3093.528-3.344.363-1.0453.891-1.9467 1.584-2.704.704-.768 1.568-1.37067 2.592-1.808 1.035-.43733 2.23-.656 3.584-.656 1.302 0 2.443.208 3.424.624.982.416 1.867 1.024 2.656 1.824zm2.955 10.144c0-.384.069-.7413.208-1.072.149-.3307.347-.6187.592-.864.256-.2453.555-.4373.896-.576.341-.1493.715-.224 1.12-.224.395 0 .763.0747 1.104.224.341.1387.64.3307.896.576s.453.5333.592.864c.149.3307.224.688.224 1.072s-.075.7467-.224 1.088c-.139.3307-.336.6187-.592.864s-.555.4373-.896.576-.709.208-1.104.208c-.405 0-.779-.0693-1.12-.208s-.64-.3307-.896-.576c-.245-.2453-.443-.5333-.592-.864-.139-.3413-.208-.704-.208-1.088z" fill="#121111"/></svg>

<svg width="266" height="25" viewBox="0 0 266 25" fill="none" xmlns="http://www.w3.org/2000/svg">
<path d="M0.92 24V7.408H3.992C4.30133 7.408 4.55733 7.47733 4.76 7.616C4.97333 7.75467 5.12267 7.96267 5.208 8.24L5.48 9.136C5.75733 8.848 6.04533 8.58667 6.344 8.352C6.64267 8.10667 6.96267 7.89867 7.304 7.728C7.656 7.54667 8.02933 7.408 8.424 7.312C8.82933 7.20533 9.272 7.152 9.752 7.152C10.7547 7.152 11.5813 7.41333 12.232 7.936C12.8933 8.448 13.3947 9.136 13.736 10C14.0133 9.488 14.3493 9.05067 14.744 8.688C15.1493 8.32533 15.5813 8.032 16.04 7.808C16.5093 7.584 17 7.41867 17.512 7.312C18.0347 7.20533 18.552 7.152 19.064 7.152C20.0133 7.152 20.856 7.296 21.592 7.584C22.328 7.86133 22.9413 8.272 23.432 8.816C23.9333 9.34933 24.312 10.0107 24.568 10.8C24.824 11.5787 24.952 12.464 24.952 13.456V24H19.992V13.456C19.992 11.7387 19.256 10.88 17.784 10.88C17.112 10.88 16.552 11.104 16.104 11.552C15.6667 11.9893 15.448 12.624 15.448 13.456V24H10.488V13.456C10.488 12.5067 10.3013 11.84 9.928 11.456C9.55467 11.072 9.00533 10.88 8.28 10.88C7.832 10.88 7.40533 10.9813 7 11.184C6.60533 11.3867 6.232 11.6587 5.88 12V24H0.92ZM40.2585 24C39.7892 24 39.4318 23.936 39.1865 23.808C38.9518 23.68 38.7545 23.4133 38.5945 23.008L38.2425 22.096C37.8265 22.448 37.4265 22.7573 37.0425 23.024C36.6585 23.2907 36.2585 23.52 35.8425 23.712C35.4372 23.8933 34.9998 24.0267 34.5305 24.112C34.0718 24.208 33.5598 24.256 32.9945 24.256C32.2372 24.256 31.5492 24.16 30.9305 23.968C30.3118 23.7653 29.7838 23.472 29.3465 23.088C28.9198 22.704 28.5892 22.2293 28.3545 21.664C28.1198 21.088 28.0025 20.4267 28.0025 19.68C28.0025 19.0933 28.1518 18.4907 28.4505 17.872C28.7492 17.2533 29.2665 16.6933 30.0025 16.192C30.7385 15.68 31.7305 15.2533 32.9785 14.912C34.2265 14.5707 35.7998 14.3787 37.6985 14.336V13.632C37.6985 12.6613 37.4958 11.9627 37.0905 11.536C36.6958 11.0987 36.1305 10.88 35.3945 10.88C34.8078 10.88 34.3278 10.944 33.9545 11.072C33.5812 11.2 33.2452 11.344 32.9465 11.504C32.6585 11.664 32.3758 11.808 32.0985 11.936C31.8212 12.064 31.4905 12.128 31.1065 12.128C30.7652 12.128 30.4718 12.048 30.2265 11.888C29.9918 11.7173 29.8052 11.5093 29.6665 11.264L28.7705 9.712C29.7732 8.82667 30.8825 8.17067 32.0985 7.744C33.3252 7.30667 34.6372 7.088 36.0345 7.088C37.0372 7.088 37.9385 7.25333 38.7385 7.584C39.5492 7.904 40.2318 8.35733 40.7865 8.944C41.3518 9.52 41.7838 10.208 42.0825 11.008C42.3812 11.808 42.5305 12.6827 42.5305 13.632V24H40.2585ZM34.5625 20.976C35.2025 20.976 35.7625 20.864 36.2425 20.64C36.7225 20.416 37.2078 20.0533 37.6985 19.552V17.248C36.7065 17.2907 35.8905 17.376 35.2505 17.504C34.6105 17.632 34.1038 17.792 33.7305 17.984C33.3572 18.176 33.0958 18.3947 32.9465 18.64C32.8078 18.8853 32.7385 19.152 32.7385 19.44C32.7385 20.0053 32.8932 20.4053 33.2025 20.64C33.5118 20.864 33.9652 20.976 34.5625 20.976ZM46.3725 24V0.0479984H51.3325V8.864C51.9298 8.352 52.5752 7.94133 53.2685 7.632C53.9725 7.312 54.8098 7.152 55.7805 7.152C56.6872 7.152 57.4872 7.312 58.1805 7.632C58.8845 7.94133 59.4765 8.37867 59.9565 8.944C60.4365 9.49867 60.7992 10.1653 61.0445 10.944C61.2898 11.712 61.4125 12.5493 61.4125 13.456V24H56.4525V13.456C56.4525 12.6453 56.2658 12.016 55.8925 11.568C55.5192 11.1093 54.9698 10.88 54.2445 10.88C53.7005 10.88 53.1885 10.9973 52.7085 11.232C52.2285 11.4667 51.7698 11.7813 51.3325 12.176V24H46.3725ZM65.255 24V7.408H68.327C68.6363 7.408 68.8923 7.47733 69.095 7.616C69.3083 7.75467 69.4577 7.96267 69.543 8.24L69.831 9.2C70.151 8.90133 70.4817 8.624 70.823 8.368C71.1643 8.112 71.527 7.89867 71.911 7.728C72.3057 7.54667 72.727 7.408 73.175 7.312C73.6337 7.20533 74.1297 7.152 74.663 7.152C75.5697 7.152 76.3697 7.312 77.063 7.632C77.767 7.94133 78.359 8.37867 78.839 8.944C79.319 9.49867 79.6817 10.1653 79.927 10.944C80.1723 11.712 80.295 12.5493 80.295 13.456V24H75.335V13.456C75.335 12.6453 75.1483 12.016 74.775 11.568C74.4017 11.1093 73.8523 10.88 73.127 10.88C72.583 10.88 72.071 10.9973 71.591 11.232C71.111 11.4667 70.6523 11.7813 70.215 12.176V24H65.255ZM95.5935 24C95.1242 24 94.7668 23.936 94.5215 23.808C94.2868 23.68 94.0895 23.4133 93.9295 23.008L93.5775 22.096C93.1615 22.448 92.7615 22.7573 92.3775 23.024C91.9935 23.2907 91.5935 23.52 91.1775 23.712C90.7722 23.8933 90.3348 24.0267 89.8655 24.112C89.4068 24.208 88.8948 24.256 88.3295 24.256C87.5722 24.256 86.8842 24.16 86.2655 23.968C85.6468 23.7653 85.1188 23.472 84.6815 23.088C84.2548 22.704 83.9242 22.2293 83.6895 21.664C83.4548 21.088 83.3375 20.4267 83.3375 19.68C83.3375 19.0933 83.4868 18.4907 83.7855 17.872C84.0842 17.2533 84.6015 16.6933 85.3375 16.192C86.0735 15.68 87.0655 15.2533 88.3135 14.912C89.5615 14.5707 91.1348 14.3787 93.0335 14.336V13.632C93.0335 12.6613 92.8308 11.9627 92.4255 11.536C92.0308 11.0987 91.4655 10.88 90.7295 10.88C90.1428 10.88 89.6628 10.944 89.2895 11.072C88.9162 11.2 88.5802 11.344 88.2815 11.504C87.9935 11.664 87.7108 11.808 87.4335 11.936C87.1562 12.064 86.8255 12.128 86.4415 12.128C86.1002 12.128 85.8068 12.048 85.5615 11.888C85.3268 11.7173 85.1402 11.5093 85.0015 11.264L84.1055 9.712C85.1082 8.82667 86.2175 8.17067 87.4335 7.744C88.6602 7.30667 89.9722 7.088 91.3695 7.088C92.3722 7.088 93.2735 7.25333 94.0735 7.584C94.8842 7.904 95.5668 8.35733 96.1215 8.944C96.6868 9.52 97.1188 10.208 97.4175 11.008C97.7162 11.808 97.8655 12.6827 97.8655 13.632V24H95.5935ZM89.8975 20.976C90.5375 20.976 91.0975 20.864 91.5775 20.64C92.0575 20.416 92.5428 20.0533 93.0335 19.552V17.248C92.0415 17.2907 91.2255 17.376 90.5855 17.504C89.9455 17.632 89.4388 17.792 89.0655 17.984C88.6922 18.176 88.4308 18.3947 88.2815 18.64C88.1428 18.8853 88.0735 19.152 88.0735 19.44C88.0735 20.0053 88.2282 20.4053 88.5375 20.64C88.8468 20.864 89.3002 20.976 89.8975 20.976ZM108.215 24V7.408H111.287C111.596 7.408 111.852 7.47733 112.055 7.616C112.268 7.75467 112.418 7.96267 112.503 8.24L112.775 9.136C113.052 8.848 113.34 8.58667 113.639 8.352C113.938 8.10667 114.258 7.89867 114.599 7.728C114.951 7.54667 115.324 7.408 115.719 7.312C116.124 7.20533 116.567 7.152 117.047 7.152C118.05 7.152 118.876 7.41333 119.527 7.936C120.188 8.448 120.69 9.136 121.031 10C121.308 9.488 121.644 9.05067 122.039 8.688C122.444 8.32533 122.876 8.032 123.335 7.808C123.804 7.584 124.295 7.41867 124.807 7.312C125.33 7.20533 125.847 7.152 126.359 7.152C127.308 7.152 128.151 7.296 128.887 7.584C129.623 7.86133 130.236 8.272 130.727 8.816C131.228 9.34933 131.607 10.0107 131.863 10.8C132.119 11.5787 132.247 12.464 132.247 13.456V24H127.287V13.456C127.287 11.7387 126.551 10.88 125.079 10.88C124.407 10.88 123.847 11.104 123.399 11.552C122.962 11.9893 122.743 12.624 122.743 13.456V24H117.783V13.456C117.783 12.5067 117.596 11.84 117.223 11.456C116.85 11.072 116.3 10.88 115.575 10.88C115.127 10.88 114.7 10.9813 114.295 11.184C113.9 11.3867 113.527 11.6587 113.175 12V24H108.215ZM147.554 24C147.084 24 146.727 23.936 146.482 23.808C146.247 23.68 146.05 23.4133 145.89 23.008L145.538 22.096C145.122 22.448 144.722 22.7573 144.338 23.024C143.954 23.2907 143.554 23.52 143.138 23.712C142.732 23.8933 142.295 24.0267 141.826 24.112C141.367 24.208 140.855 24.256 140.29 24.256C139.532 24.256 138.844 24.16 138.226 23.968C137.607 23.7653 137.079 23.472 136.642 23.088C136.215 22.704 135.884 22.2293 135.65 21.664C135.415 21.088 135.298 20.4267 135.298 19.68C135.298 19.0933 135.447 18.4907 135.746 17.872C136.044 17.2533 136.562 16.6933 137.298 16.192C138.034 15.68 139.026 15.2533 140.274 14.912C141.522 14.5707 143.095 14.3787 144.994 14.336V13.632C144.994 12.6613 144.791 11.9627 144.386 11.536C143.991 11.0987 143.426 10.88 142.69 10.88C142.103 10.88 141.623 10.944 141.25 11.072C140.876 11.2 140.54 11.344 140.242 11.504C139.954 11.664 139.671 11.808 139.394 11.936C139.116 12.064 138.786 12.128 138.402 12.128C138.06 12.128 137.767 12.048 137.522 11.888C137.287 11.7173 137.1 11.5093 136.962 11.264L136.066 9.712C137.068 8.82667 138.178 8.17067 139.394 7.744C140.62 7.30667 141.932 7.088 143.33 7.088C144.332 7.088 145.234 7.25333 146.034 7.584C146.844 7.904 147.527 8.35733 148.082 8.944C148.647 9.52 149.079 10.208 149.378 11.008C149.676 11.808 149.826 12.6827 149.826 13.632V24H147.554ZM141.858 20.976C142.498 20.976 143.058 20.864 143.538 20.64C144.018 20.416 144.503 20.0533 144.994 19.552V17.248C144.002 17.2907 143.186 17.376 142.546 17.504C141.906 17.632 141.399 17.792 141.026 17.984C140.652 18.176 140.391 18.3947 140.242 18.64C140.103 18.8853 140.034 19.152 140.034 19.44C140.034 20.0053 140.188 20.4053 140.498 20.64C140.807 20.864 141.26 20.976 141.858 20.976ZM153.667 24V0.0479984H158.627V8.864C159.225 8.352 159.87 7.94133 160.563 7.632C161.267 7.312 162.105 7.152 163.075 7.152C163.982 7.152 164.782 7.312 165.475 7.632C166.179 7.94133 166.771 8.37867 167.251 8.944C167.731 9.49867 168.094 10.1653 168.339 10.944C168.585 11.712 168.707 12.5493 168.707 13.456V24H163.747V13.456C163.747 12.6453 163.561 12.016 163.187 11.568C162.814 11.1093 162.265 10.88 161.539 10.88C160.995 10.88 160.483 10.9973 160.003 11.232C159.523 11.4667 159.065 11.7813 158.627 12.176V24H153.667ZM172.55 24V7.408H175.622C175.931 7.408 176.187 7.47733 176.39 7.616C176.603 7.75467 176.753 7.96267 176.838 8.24L177.126 9.2C177.446 8.90133 177.777 8.624 178.118 8.368C178.459 8.112 178.822 7.89867 179.206 7.728C179.601 7.54667 180.022 7.408 180.47 7.312C180.929 7.20533 181.425 7.152 181.958 7.152C182.865 7.152 183.665 7.312 184.358 7.632C185.062 7.94133 185.654 8.37867 186.134 8.944C186.614 9.49867 186.977 10.1653 187.222 10.944C187.467 11.712 187.59 12.5493 187.59 13.456V24H182.63V13.456C182.63 12.6453 182.443 12.016 182.07 11.568C181.697 11.1093 181.147 10.88 180.422 10.88C179.878 10.88 179.366 10.9973 178.886 11.232C178.406 11.4667 177.947 11.7813 177.51 12.176V24H172.55ZM202.888 24C202.419 24 202.062 23.936 201.816 23.808C201.582 23.68 201.384 23.4133 201.224 23.008L200.872 22.096C200.456 22.448 200.056 22.7573 199.672 23.024C199.288 23.2907 198.888 23.52 198.472 23.712C198.067 23.8933 197.63 24.0267 197.16 24.112C196.702 24.208 196.19 24.256 195.624 24.256C194.867 24.256 194.179 24.16 193.56 23.968C192.942 23.7653 192.414 23.472 191.976 23.088C191.55 22.704 191.219 22.2293 190.984 21.664C190.75 21.088 190.632 20.4267 190.632 19.68C190.632 19.0933 190.782 18.4907 191.08 17.872C191.379 17.2533 191.896 16.6933 192.632 16.192C193.368 15.68 194.36 15.2533 195.608 14.912C196.856 14.5707 198.43 14.3787 200.328 14.336V13.632C200.328 12.6613 200.126 11.9627 199.72 11.536C199.326 11.0987 198.76 10.88 198.024 10.88C197.438 10.88 196.958 10.944 196.584 11.072C196.211 11.2 195.875 11.344 195.576 11.504C195.288 11.664 195.006 11.808 194.728 11.936C194.451 12.064 194.12 12.128 193.736 12.128C193.395 12.128 193.102 12.048 192.856 11.888C192.622 11.7173 192.435 11.5093 192.296 11.264L191.4 9.712C192.403 8.82667 193.512 8.17067 194.728 7.744C195.955 7.30667 197.267 7.088 198.664 7.088C199.667 7.088 200.568 7.25333 201.368 7.584C202.179 7.904 202.862 8.35733 203.416 8.944C203.982 9.52 204.414 10.208 204.712 11.008C205.011 11.808 205.16 12.6827 205.16 13.632V24H202.888ZM197.192 20.976C197.832 20.976 198.392 20.864 198.872 20.64C199.352 20.416 199.838 20.0533 200.328 19.552V17.248C199.336 17.2907 198.52 17.376 197.88 17.504C197.24 17.632 196.734 17.792 196.36 17.984C195.987 18.176 195.726 18.3947 195.576 18.64C195.438 18.8853 195.368 19.152 195.368 19.44C195.368 20.0053 195.523 20.4053 195.832 20.64C196.142 20.864 196.595 20.976 197.192 20.976ZM221.43 24H215.99V0.688H221.43V24ZM226.08 24V7.408H229.152C229.461 7.408 229.717 7.47733 229.92 7.616C230.133 7.75467 230.283 7.96267 230.368 8.24L230.656 9.2C230.976 8.90133 231.307 8.624 231.648 8.368C231.989 8.112 232.352 7.89867 232.736 7.728C233.131 7.54667 233.552 7.408 234 7.312C234.459 7.20533 234.955 7.152 235.488 7.152C236.395 7.152 237.195 7.312 237.888 7.632C238.592 7.94133 239.184 8.37867 239.664 8.944C240.144 9.49867 240.507 10.1653 240.752 10.944C240.997 11.712 241.12 12.5493 241.12 13.456V24H236.16V13.456C236.16 12.6453 235.973 12.016 235.6 11.568C235.227 11.1093 234.677 10.88 233.952 10.88C233.408 10.88 232.896 10.9973 232.416 11.232C231.936 11.4667 231.477 11.7813 231.04 12.176V24H226.08ZM256.93 11.344C256.781 11.5253 256.637 11.6693 256.498 11.776C256.36 11.8827 256.162 11.936 255.906 11.936C255.661 11.936 255.437 11.8773 255.234 11.76C255.042 11.6427 254.824 11.5147 254.578 11.376C254.333 11.2267 254.045 11.0933 253.714 10.976C253.384 10.8587 252.973 10.8 252.482 10.8C251.874 10.8 251.346 10.912 250.898 11.136C250.461 11.36 250.098 11.68 249.81 12.096C249.522 12.512 249.309 13.024 249.17 13.632C249.032 14.2293 248.962 14.9067 248.962 15.664C248.962 17.2533 249.266 18.4747 249.874 19.328C250.493 20.1813 251.341 20.608 252.418 20.608C252.994 20.608 253.448 20.5387 253.778 20.4C254.12 20.2507 254.408 20.0907 254.642 19.92C254.877 19.7387 255.09 19.5733 255.282 19.424C255.485 19.2747 255.736 19.2 256.034 19.2C256.429 19.2 256.728 19.344 256.93 19.632L258.37 21.408C257.858 21.9947 257.32 22.4747 256.754 22.848C256.189 23.2107 255.608 23.4987 255.01 23.712C254.424 23.9147 253.832 24.0533 253.234 24.128C252.637 24.2133 252.056 24.256 251.49 24.256C250.477 24.256 249.506 24.064 248.578 23.68C247.661 23.296 246.85 22.7413 246.146 22.016C245.453 21.28 244.898 20.3787 244.482 19.312C244.077 18.2453 243.874 17.0293 243.874 15.664C243.874 14.4693 244.05 13.3547 244.402 12.32C244.765 11.2747 245.293 10.3733 245.986 9.616C246.69 8.848 247.554 8.24533 248.578 7.808C249.613 7.37067 250.808 7.152 252.162 7.152C253.464 7.152 254.605 7.36 255.586 7.776C256.568 8.192 257.453 8.8 258.242 9.6L256.93 11.344ZM259.885 21.488C259.885 21.104 259.954 20.7467 260.093 20.416C260.242 20.0853 260.44 19.7973 260.685 19.552C260.941 19.3067 261.24 19.1147 261.581 18.976C261.922 18.8267 262.296 18.752 262.701 18.752C263.096 18.752 263.464 18.8267 263.805 18.976C264.146 19.1147 264.445 19.3067 264.701 19.552C264.957 19.7973 265.154 20.0853 265.293 20.416C265.442 20.7467 265.517 21.104 265.517 21.488C265.517 21.872 265.442 22.2347 265.293 22.576C265.154 22.9067 264.957 23.1947 264.701 23.44C264.445 23.6853 264.146 23.8773 263.805 24.016C263.464 24.1547 263.096 24.224 262.701 24.224C262.296 24.224 261.922 24.1547 261.581 24.016C261.24 23.8773 260.941 23.6853 260.685 23.44C260.44 23.1947 260.242 22.9067 260.093 22.576C259.954 22.2347 259.885 21.872 259.885 21.488Z" fill="#121111"/>
</svg>
